packages/bezier-icons/icons/goal-off.svg

<svg width="24" height="24" viewBox="0 0 24 24" fill="none" xmlns="http://www.w3.org/2000/svg">
<path d="M12.0002 20.0001V22.0001C13.9601 22.0001 15.7902 21.4333 17.3351 20.4551L15.8766 18.9966C14.7276 19.6358 13.4056 20.0001 12.0002 20.0001Z" fill="#313234"/>
<path fill-rule="evenodd" clip-rule="evenodd" d="M19.6465 18.4381C21.1145 16.6973 22.0002 14.4502 22.0002 12.0001C22.0002 6.48611 17.5142 2.00011 12.0002 2.00011C9.55014 2.00011 7.30303 2.8858 5.56225 4.35382L4.12132 2.91289C3.7308 2.52237 3.09763 2.52237 2.70711 2.91289C2.31659 3.30342 2.31659 3.93658 2.70711 4.32711L19.6777 21.2977C20.0682 21.6882 20.7014 21.6882 21.0919 21.2977C21.4824 20.9071 21.4824 20.274 21.0919 19.8835L19.6465 18.4381ZM6.98231 5.77388C8.35563 4.66489 10.1018 4.00011 12.0002 4.00011C16.4112 4.00011 20.0002 7.58911 20.0002 12.0001C20.0002 13.8985 19.3354 15.6447 18.2264 17.018L6.98231 5.77388Z" fill="#313234"/>
<path d="M3.54523 6.66523L5.00372 8.12372C4.36454 9.27274 4.0002 10.5947 4.0002 12.0001H2.0002C2.0002 10.0402 2.56698 8.21011 3.54523 6.66523Z" fill="#313234"/>
<path d="M8.00001 17.4142L11.1471 14.2671L9.7329 12.8529L6.58579 16H4.91422C4.649 16 4.39465 16.1054 4.20711 16.2929L1.92678 18.5732C1.76929 18.7307 1.88083 19 2.10356 19H5.00001V21.8964C5.00001 22.1192 5.26929 22.2307 5.42678 22.0732L7.70711 19.7929C7.89465 19.6054 8.00001 19.351 8.00001 19.0858V17.4142Z" fill="#313234"/>
</svg>

<svg xmlns="http://www.w3.org/2000/svg" width="24" height="24" fill="none" viewBox="0 0 24 24"><path fill="#313234" d="M12 20v2c1.96 0 3.79-.567 5.335-1.545l-1.458-1.458A7.95 7.95 0 0 1 12 20"/><path fill="#313234" fill-rule="evenodd" d="M19.647 18.438A9.96 9.96 0 0 0 22 12c0-5.514-4.486-10-10-10-2.45 0-4.697.886-6.438 2.354l-1.44-1.441a1 1 0 0 0-1.415 1.414l16.97 16.97a1 1 0 0 0 1.415-1.413zM6.982 5.774A7.96 7.96 0 0 1 12 4c4.411 0 8 3.59 8 8a7.96 7.96 0 0 1-1.774 5.018z" clip-rule="evenodd"/><path fill="#313234" d="m3.545 6.665 1.459 1.459A7.95 7.95 0 0 0 4 12H2c0-1.96.567-3.79 1.545-5.335M8 17.414l3.147-3.147-1.414-1.414L6.586 16H4.914a1 1 0 0 0-.707.293l-2.28 2.28a.25.25 0 0 0 .177.427H5v2.896c0 .223.27.335.427.177l2.28-2.28A1 1 0 0 0 8 19.086z"/></svg>
